!!!COM: Bach, Johann Sebastian
!!!OPR: Die Kunst der Fuge
!!!XEN: The Art of Fugue
!!!OTL:
!!!OMV: 20
!!!SCT: BWV 1080
!!!SCA: Thematisch-systematisches Verzeichnis der musikalischen Werke Johann Sebastian Bach: Bach-Werke-Verzeichnis (Schmieder)
!!!YOR: Bach Gesellschaft Edition xxv,1
!!!EED: Frances Bennion
!!!ENC: Frances Bennion
!!!CDT: 1685/3//-1750/7/28/
!!!OCY: Deutschland
!!!YEC: Copyright (c) 1994, 2000 Center for Computer Assisted Research in the Humanities
!!!YEM: Rights to all derivative editions reserved.
!!!YEM: Refer to licensing agreement for further details.
!!!YEN: United States of America
**kern	**kern	**kern	**kern
*k[b-]	*k[b-]	*k[b-]	*k[b-]
*d:	*d:	*d:	*d:
*clefG	*clefC	*clefG	*clefC
*M2/4	*M2/4	*M2/4	*M2/4
*tb48	*tb48	*tb48	*tb48
=0-	=0-	=0-	=0-
4.r	4.r	4.r	4.r
8dd	8r	8r	8r
=1	=1	=1	=1
8a	8r	2r	2r
6aa	8D	.	.
.	8F	.	.
24gg	.	.	.
24ff	.	.	.
24gg	8A	.	.
24ff	.	.	.
24ee	.	.	.
=2	=2	=2	=2
24ff	8d	2r	2r
24ee	.	.	.
24dd	.	.	.
6ee	16.G	.	.
.	32A	.	.
.	8B-	.	.
24dd	.	.	.
24cc#	.	.	.
24dd	8G#	.	.
24cc#	.	.	.
24b	.	.	.
=3	=3	=3	=3
24cc#	16.A	2r	4.r
24dd	.	.	.
24ee	.	.	.
.	32G	.	.
6dd	24F	.	.
.	24G	.	.
.	24A	.	.
.	8B-	.	.
24ee	.	.	.
24ff	.	.	.
24ee	8C#	.	8A
24ff	.	.	.
24gg	.	.	.
=4	=4	=4	=4
16ff	8D	4.r	24D
.	.	.	24F
16dd	.	.	.
.	.	.	24A
16a	8F	.	4d
16dd	.	.	.
16ff	8A	.	.
16gg	.	.	.
16ff	8AA	8a	24c#
.	.	.	24A
16ee	.	.	.
.	.	.	24c#
=5	=5	=5	=5
24dd	16.BB-	8dd	8F
24gg	.	.	.
24ee	.	.	.
.	32GG	.	.
24ff	24D	6d	24r
24gg	24E	.	24BB-
24aa	24F	.	24AA
8bb-	6G	.	16.GG
.	.	24e	.
.	.	24f	.
.	.	.	32AA
8cc#	.	24e	16.BB-
.	24F	24f	.
.	24E	24g	.
.	.	.	32GG
=6	=6	=6	=6
6dd	24F	24f	16.D
.	24E	24g	.
.	24D	24a	.
.	.	.	32F
.	6B-	6g	16.E
24ee	.	.	.
24ff	.	.	.
.	.	.	32D
[4ee	.	.	6C#
.	24A	24a	.
.	24G	24b-	.
.	16.A	24a	.
.	.	24b-	24D
.	.	24cc	24E
.	32AA	.	.
=7	=7	=7	=7
6ee]	24D	24b-	16.D
.	24F	24a	.
.	24E	24g	.
.	.	.	32d
.	16.F	6a	16.c#
24ff	.	.	.
24gg	.	.	.
.	32E	.	32A
16.ff	24D	.	8d
.	24E	24g	.
.	24F	24f	.
32a	.	.	.
16.b	24E	24g	[8D
.	24F	24f	.
.	24G	24e	.
32cc#	.	.	.
=8	=8	=8	=8
[6..dd	6F	16f	24D]
.	.	.	24AA
.	.	16a	.
.	.	.	24FF
.	.	16dd	8DD
.	24D	.	.
.	.	16a	.
.	24F	.	.
.	16A	16f	8r
48dd]	.	.	.
16cc#	16g	16e	.
16dd	16f	16f	8A
16ee	16e	16g	.
=9	=9	=9	=9
8ff	16.d	24a	8D
.	.	24b-	.
.	.	24cc	.
.	32a	.	.
4r	24dd	24b-	6d
.	24cc	24a	.
.	24b-	24g	.
.	6a	8f#	.
.	.	.	24c
.	.	.	24B-
8ff#	.	8ee-	24c
.	24g	.	24B-
.	24a	.	24A
=10	=10	=10	=10
8gg	24d	8dd	24B-
.	24c	.	24A
.	24B-	.	24G
24ff#	24A	4r	6A
24gg	24B-	.	.
24ee	24c	.	.
24ff#	8D	.	.
24gg	.	.	24G
24aa	.	.	24F#
24bb-	8r	[8d	24G
24aa	.	.	24F#
24gg	.	.	24E
=11	=11	=11	=11
8aa	16.r	8d]	24F#
.	.	.	24G
.	.	.	24A
.	32F#	.	.
4r	16.G	24e-	6G
.	.	24d	.
.	.	24f	.
.	32A	.	.
.	24B-	4e-	.
.	24c	.	24A
.	24d	.	24B-
8ff#	24c	.	24A
.	24B-	.	24B-
.	24A	.	24c
=12	=12	=12	=12
8gg	8B-	[2d	16B-
.	.	.	16G
8bb-	8GG	.	16D
.	.	.	16G
8gg	32r	.	16B-
.	32D	.	.
.	32E	.	16c
.	32F#	.	.
16dd	32G	.	16B-
.	32A	.	.
16cc	32B-	.	16A
.	32c	.	.
=13	=13	=13	=13
8b-	16d	16d]	4G
.	16B-	16g	.
8dd	16G	16b-	.
.	16D	16g	.
8b-	8G	16d	8r
.	.	16c	.
8g	8C	16d	8B-
.	.	16e	.
=14	=14	=14	=14
8a	24F	16f	8A
.	24A	.	.
.	.	16c	.
.	24c	.	.
8aa	8f	16A	16F
.	.	16c	16G
4r	16r	16f	8A
.	16f	16a	.
.	16e	16g	8BB
.	16d	16f	.
=15	=15	=15	=15
8r	16e	16e	4C
.	16c	16a	.
8ee	16A	16cc	.
.	16E	16a	.
8cc	8A	16e	8r
.	.	16d	.
8a	8D	16e	8c
.	.	16f#	.
=16	=16	=16	=16
8b-	24G	16g	8B-
.	24B-	.	.
.	.	16d	.
.	24d	.	.
8bb-	8g	16B-	16G
.	.	16d	16A
4r	16r	16g	8B-
.	16g	16b-	.
.	16f	16a	8C#
.	16e	16g	.
=17	=17	=17	=17
8r	4d	16f	8.D
.	.	16e	.
8a	.	16f	.
.	.	16g	16E
[4dd	8r	16a	16F
.	.	16g	16G
.	8D	16f	16A
.	.	16a	16F
=18	=18	=18	=18
8dd]	4E	16e	8c
.	.	16d	.
8g	.	16e	8C
.	.	16f	.
[4cc	8r	16g	8E
.	.	16f	.
.	8C	16e	8G
.	.	16g	.
=19	=19	=19	=19
8cc]	8G	16d	8.B-
.	.	16c#	.
8b-	8GG	16d	.
.	.	16e	32A
.	.	.	32G
8a	8FF	16f	16d
.	.	16g	16G
8aa	[8F	16a	16F
.	.	16g	16E
=20	=20	=20	=20
8ddd	16F]	16f	8.D
.	16E	16g	.
6dd	16F	16f	.
.	16G	16e	16E
.	8A	8d	24F
24ee	.	.	24G
24ff	.	.	24A
24ee	16.C#	8b-	16.G
24ff	.	.	.
24gg	.	.	.
.	32E	.	32C#
=21	=21	=21	=21
24ff	16.A	8a	8D
24gg	.	.	.
24aa	.	.	.
.	32f	.	.
6gg	16.e	8c#	24E
.	.	.	24D
.	.	.	24F
.	32d	.	.
.	8c#	8r	32E
24aa	.	.	32F#
.	.	.	8G
24bb-	.	.	.
24aa	16.c	8e-	.
24bb-	.	.	.
.	.	.	16F#
24ccc	.	.	.
.	32a	.	.
=22	=22	=22	=22
24bb-	8g	8d	24G
24aa	.	.	24F
24gg	.	.	24E
6aa	24d	4r	24F
.	24A	.	24A
.	24F	.	24d
.	[4D	.	24c
24gg	.	.	24B-
24ff	.	.	24A
24gg	.	8d	24B-
24ff	.	.	24A
24ee	.	.	24G
=23	=23	=23	=23
16ff	24D]	8a	8A
.	24AA	.	.
16aa	.	.	.
.	24FF	.	.
16ddd	24DD	4r	8F
.	24FF	.	.
16aa	.	.	.
.	24AA	.	.
16ff	8D	.	8A
16ee	.	.	.
16ff#	16C	8a	8d
16gg#	16BB	.	.
=24	=24	=24	=24
8aa	24C	8e	16c
.	24E	.	.
.	.	.	16A
.	24A	.	.
16gg	8c	4r	16E
16ff#	.	.	16A
8ee	8r	.	16c
.	.	.	16e
8ff#	8D	8a	16d
.	.	.	16c
=25	=25	=25	=25
16gg	24E	8b	8B
.	24BB	.	.
16bb	.	.	.
.	24GG	.	.
16eee	24EE	4r	8G
.	24GG	.	.
16bb	.	.	.
.	24BB	.	.
16gg	8E	.	8B
16ff#	.	.	.
16gg	16D	8b	8e
16aa	16C#	.	.
=26	=26	=26	=26
8bb	24D	8f#	16d
.	24F#	.	.
.	.	.	16B
.	24B	.	.
16aa	8d	4r	16F#
16gg	.	.	16B
8ff#	8r	.	16d
.	.	.	16f
8gg#	8BB	8b	16e
.	.	.	16d
=27	=27	=27	=27
16aa	24C	8e	8c
.	24D	.	.
16bb	.	.	.
.	24BB	.	.
16ccc	24AA	4.r	6C
.	24BB-	.	.
16bb-	.	.	.
.	24C	.	.
16.aa	8FF	.	.
.	.	.	24D
.	.	.	24E
32gg	.	.	.
16.ff	[8BB-	.	24D
.	.	.	24E
.	.	.	24F
32aa	.	.	.
=28	=28	=28	=28
6gg	24BB-]	4.r	24E
.	24AA	.	24F
.	24GG	.	24G
.	6..D	.	6F
24aa	.	.	.
24bb-	.	.	.
24aa	.	.	.
24bb-	.	.	24G
24ccc	.	.	24A
24bb-	.	8f	24G
24ccc	24C	.	24A
24ddd	24BB-	.	24B-
=29	=29	=29	=29
24ccc	6F	8c	8A
24cc	.	.	.
24b-	.	.	.
24a	.	6cc	8F
24b-	24C	.	.
24cc	24BB-	.	.
[4ff	24AA	.	8A
.	24BB-	24b-	.
.	24C	24a	.
.	16.FF	24b-	8d
.	.	24a	.
.	.	24g	.
.	32GG	.	.
=30	=30	=30	=30
8ff]	24AA	24a	[2c
.	24GG	24g	.
.	24FF	24f	.
24ee	6C	6g	.
24ff	.	.	.
24dd	.	.	.
8ee	.	.	.
.	24D	24f	.
.	24E	24e	.
8aa	24D	24f	.
.	24E	24e	.
.	24F	24d	.
=31	=31	=31	=31
8gg	24E	24e	2c_
.	24D	24f	.
.	24C	24g	.
24aa	16.F	6f	.
24gg	.	.	.
24bb-	.	.	.
.	32c	.	.
8aa	16.f	.	.
.	.	24g	.
.	.	24a	.
.	32F	.	.
8ee	24B-	24g	.
.	24A	24a	.
.	24G	24b-	.
=32	=32	=32	=32
24ff	6F	16.a	4c]
24ccc	.	.	.
24aa	.	.	.
.	.	32f	.
24ff	.	16.c	.
24aa	24C	.	.
24ff	24AA	.	.
.	.	32f	.
16cc	8FF	16a	8r
16gg	.	16b-	.
16ff	8AA	16a	8c
16ee-	.	16g	.
=33	=33	=33	=33
24dd	24BB-	8f	8f
24cc	24C	.	.
24b-	24D	.	.
24cc	24E-	8a	6F
24b-	24D	.	.
24a	24C	.	.
[4ff	8BB-	16.dd	.
.	.	.	24G
.	.	.	24A
.	.	32cc	.
.	8B-	16.b-	24G
.	.	.	24A
.	.	.	24B-
.	.	32dd	.
=34	=34	=34	=34
2ff_	16.F	6cc	24A
.	.	.	24B-
.	.	.	24c
.	32e-	.	.
.	16.d	.	6B-
.	.	24dd	.
.	.	24ee-	.
.	32c	.	.
.	24B-	24dd	.
.	24A	24cc	24c
.	24G	24b-	24d
.	24A	24a	24c
.	24G	24b-	24d
.	24F	24cc	24e-
=35	=35	=35	=35
2ff_	8B-	24b-	24d
.	.	24a	24c
.	.	24g	24B-
.	8F	24a	6c
.	.	24g	.
.	.	24b-	.
.	8E-	24a	.
.	.	24b-	24B-
.	.	24cc	24A
.	16.D	24dd	24B-
.	.	24cc	24A
.	.	24b-	24G
.	32d	.	.
=36	=36	=36	=36
4ff]	24c	8cc	16A
.	24F	.	.
.	.	.	16c
.	24A	.	.
.	24c	8a	16f
.	24A	.	.
.	.	.	16c
.	24c	.	.
8r	24f	8f	16A
.	24g	.	.
.	.	.	16G
.	24f	.	.
8aa	24e	8cc	16A
.	24f	.	.
.	.	.	16B
.	24d	.	.
=37	=37	=37	=37
8ee	6c	8g	24c
.	.	.	24e
.	.	.	24d
6eee	.	8r	24c
.	24d	.	24B
.	24c	.	24A
.	16.B	8b	16.G#
24ddd	.	.	.
24ccc	.	.	.
.	32E	.	32A
24ddd	[8e	8r	16.B
24ccc	.	.	.
24bb	.	.	.
.	.	.	32G#
=38	=38	=38	=38
24ccc	16.e]	[2e	24A
24bb	.	.	24G#
24aa	.	.	24F#
.	32A	.	.
6bb	24E	.	24G#
.	24G#	.	24E
.	24B	.	24G#
.	24G#	.	24B
24aa	24F#	.	24c
24gg#	24E	.	24d
24aa	16.A	.	24c
24gg#	.	.	24B
24ff#	.	.	24A
.	32AA	.	.
=39	=39	=39	=39
24gg#	16.E	2e_	24B
24aa	.	.	24c
24bb	.	.	24d
.	32BB	.	.
6aa	24C	.	24c
.	24AA	.	24e
.	24BB	.	24d
.	24C	.	24c
24bb	24D	.	24B
24ccc	24E	.	24A
24bb	16.EE	.	24G#
24ccc	.	.	24A
24ddd	.	.	24B
.	32E	.	.
=40	=40	=40	=40
16ccc	8AA	2e_	24A
.	.	.	24e
16aa	.	.	.
.	.	.	24c
16ee	8.A	.	24A
.	.	.	24c
16aa	.	.	.
.	.	.	24A
16ccc	.	.	16E
16ddd	16G#	.	16F
16ccc	16A	.	16E
16bb	16B	.	16D
=41	=41	=41	=41
8aa	24c	4e]	16C
.	24A	.	.
.	.	.	16E
.	24c	.	.
8ccc	24e	.	16A
.	24c	.	.
.	.	.	16E
.	24e	.	.
8aa	24a	8r	16C
.	24b	.	.
.	.	.	16BB
.	24a	.	.
16ee	24g	8e	16C
.	24a	.	.
16ff#	.	.	16D
.	24f#	.	.
=42	=42	=42	=42
16gg	24e	4B	8E
.	24B	.	.
16ee	.	.	.
.	24G	.	.
16b	8E	.	8G
16ee	.	.	.
16gg	8r	8r	8E
16bb-	.	.	.
16aa	8A	8e	8C#
16gg	.	.	.
=43	=43	=43	=43
8ff	24d	4f	16D
.	24B-	.	.
.	.	.	16F
.	24d	.	.
8ddd	24f	.	16B-
.	24d	.	.
.	.	.	16F
.	24f	.	.
8bb-	24b-	8r	16D
.	24cc	.	.
.	.	.	16C
.	24b-	.	.
16ff	24a	8f	16D
.	24b-	.	.
16gg	.	.	16E
.	24g	.	.
=44	=44	=44	=44
16aa	24f	4c	8F
.	24c	.	.
16ff	.	.	.
.	24A	.	.
16cc	8F	.	8A
16ff	.	.	.
16aa	8r	8r	8F
16gg	.	.	.
16bb-	[8d	8f	8D
16aa	.	.	.
=45	=45	=45	=45
4gg	24d]	16g	8E
.	24b-	.	.
.	.	16e	.
.	24g	.	.
.	24e	16c#	8A
.	24g	.	.
.	.	16e	.
.	24e	.	.
8r	24c#	16g	8B-
.	24d	.	.
.	.	16f	.
.	24e	.	.
8cc#	[8A	16g	8r
.	.	16a	.
=46	=46	=46	=46
8dd	8A]	16b-	16r
.	.	16g	32B-
.	.	.	32A
8.r	8D	16e	32G
.	.	.	32F
.	.	16g	32E
.	.	.	32D
.	16G	16b-	8C#
16f	16F	16a	.
16g	16E	16b	8r
16e	16A	16cc#	.
=47	=47	=47	=47
8b-	16.D	16.dd	24r
.	.	.	24G
.	.	.	24D
.	32d	32b-	.
4r	16.c#	16.g	24E
.	.	.	24F
.	.	.	24G
.	32e	32b-	.
.	8A	16.dd	24F
.	.	.	24G
.	.	.	24A
.	.	32cc#	.
8gg	8r	16.dd	24B-
.	.	.	24A
.	.	.	24G
.	.	32ee	.
=48	=48	=48	=48
8ddd	8r	24ff	8F
.	.	24dd	.
.	.	24a	.
6dd	8d	24f	4r
.	.	24g	.
.	.	24a	.
.	8G	4b-	.
24ee	.	.	.
24ff	.	.	.
24ee	8g	.	8c#
24ff	.	.	.
24gg	.	.	.
=49	=49	=49	=49
24ff	8r	8a	8d
24gg	.	.	.
24aa	.	.	.
6gg	16.e	8c#	24e
.	.	.	24d
.	.	.	24f
.	32d	.	.
.	8c#	8r	32e
24aa	.	.	32f#
.	.	.	8g
24bb-	.	.	.
24aa	16.c	8e-	.
24bb-	.	.	.
.	.	.	16f#
24ccc	.	.	.
.	32C	.	.
=50	=50	=50	=50
24bb-	8G	16.d	8g
24aa	.	.	.
24gg	.	.	.
.	.	32e	.
6aa	16.F	24f	4r
.	.	24e	.
.	.	24d	.
.	32G	.	.
.	8A	16.c#	.
24gg	.	.	.
24ff	.	.	.
.	.	32a	.
24gg	8C#	24b-	8G
24ff	.	24a	.
24ee	.	24g	.
=51	=51	=51	=51
16ff	24D	8a	8d
.	24AA	.	.
16aa	.	.	.
.	24FF	.	.
16ddd	24DD	8f	4r
.	24FF	.	.
16aa	.	.	.
.	24AA	.	.
16ff	8D	8d	.
16ee	.	.	.
16ff#	16C	8a	8d
16gg#	16BB	.	.
=52	=52	=52	=52
8aa	24AA	8e	16c
.	24C	.	.
.	.	.	16A
.	24E	.	.
8cc	24A	4r	16E
.	24c	.	.
.	.	.	16A
.	24e	.	.
8ee	8a	.	16c
.	.	.	16e
8aa	8r	8e	16d
.	.	.	16c
=53	=53	=53	=53
16ee	24C	8ee	8g
.	24GG	.	.
16gg	.	.	.
.	24EE	.	.
16ccc	24CC	8e	4r
.	24EE	.	.
16gg	.	.	.
.	24GG	.	.
16ee	8C	8c	.
16dd	.	.	.
16ee	16BB-	8g	8c
16ff#	16AA	.	.
=54	=54	=54	=54
8gg	24GG	8d	16B-
.	24BB-	.	.
.	.	.	16G
.	24D	.	.
8b-	24G	4r	16D
.	24B-	.	.
.	.	.	16G
.	24d	.	.
8dd	8g	.	16B-
.	.	.	16d
8gg	8r	8d	16c
.	.	.	16B-
=55	=55	=55	=55
16dd	24B-	8dd	8f
.	24F	.	.
16ff	.	.	.
.	24D	.	.
16bb-	24BB-	8d	4r
.	24D	.	.
16ff	.	.	.
.	24F	.	.
16dd	8B-	8B-	.
16cc	.	.	.
16dd	16A	8f	8B-
16ee	16G	.	.
=56	=56	=56	=56
4ff	24A	8c	16A
.	24F	.	.
.	.	.	16F
.	24A	.	.
.	24c	8A	16C
.	24A	.	.
.	.	.	16F
.	24c	.	.
8r	16f	8c	16A
.	16e	.	16c
8dd	16d	8f	16B-
.	16f	.	16A
=57	=57	=57	=57
16cc#	24g	8e	8e
.	24e	.	.
16ee	.	.	.
.	24c#	.	.
16aa	24A	8c#	4r
.	24c#	.	.
16ee	.	.	.
.	24e	.	.
16cc#	16g	8e	.
16b	16f	.	.
16cc#	16e	8a	8A
16dd	16d	.	.
=58	=58	=58	=58
8ee	24c#	16g	8B-
.	24e	.	.
.	.	16e	.
.	24g	.	.
8.r	24b-	16c#	8.r
.	24g	.	.
.	.	16e	.
.	24e	.	.
.	8c#	16g	.
16gg	.	16b-	16E
16ff	16d	16a	16F
16ee	16e	16g	16G
=59	=59	=59	=59
4bb-	4G	4ee	4C#
8r	8r	8r	6r
8gg	24BB-	8e	.
.	24AA	.	24C#
.	24GG	.	24B-
=60	=60	=60	=60
24ff	16.D	24f	6A
24ee	.	24g	.
24dd	.	24a	.
.	32F	.	.
24cc#	16.A	6e	.
24ee	.	.	24G
24dd	.	.	24F#
.	32AA	.	.
24cc	16.BB-	.	6G
24dd	.	24f#	.
24cc	.	24g	.
.	32AA	.	.
24b-	16.BB-	8d	.
24cc	.	.	24A
24b-	.	.	24G
.	32GG	.	.
=61	=61	=61	=61
24a	16.DD	8a	6F
24ff	.	.	.
24ee	.	.	.
.	32AA	.	.
24dd	8..BB-	4r	.
24ee	.	.	24E
24ff	.	.	24D
24gg	.	.	6E
24ee	.	.	.
24dd	.	.	.
.	32GG	.	.
24cc#	16.AA	8e	.
24dd	.	.	24F
24ee	.	.	24E
.	32C#	.	.
=62	=62	=62	=62
24ff	16.DD	8A	[2D
24aa	.	.	.
24ff	.	.	.
.	32D	.	.
24dd	16.F	6a	.
24ff	.	.	.
24dd	.	.	.
.	32A	.	.
24a	16.d	.	.
24b-	.	24g	.
24cc	.	24f#	.
.	32D	.	.
24b-	24d	24g	.
24a	24c	24f	.
24g	24B-	24e	.
=63	=63	=63	=63
[2a	8A	24f	24D]
.	.	24e	24C#
.	.	24d	24BB
.	8AA	6e	24C#
.	.	.	24E
.	.	.	24A
.	24A	.	24G
.	24B	24d	24F
.	24c#	24c#	24E
.	24B	24d	24F
.	24c#	24c#	24E
.	24d	24B	24D
=64	=64	=64	=64
6a]	24G	24c#	24E
.	24F#	24d	24F#
.	24E	24e	24G
.	24F#	6d	24F#
24b-	24E	.	24G
24cc	24D	.	24A
8b-	8G	.	8G
.	.	24e	.
.	.	24f	.
8r	8C#	24e	8r
.	.	24f	.
.	.	24g	.
=65	=65	=65	=65
24r	8D	16.f	4.r
24a	.	.	.
24dd	.	.	.
.	.	32d	.
24ff	8DD	16.A	.
24dd	.	.	.
24ff	.	.	.
.	.	32d	.
24aa	8r	16.f	.
24ff	.	.	.
24dd	.	.	.
.	.	32g	.
24a	8D	16.f	8A
24b-	.	.	.
24cc	.	.	.
.	.	32e	.
=66	=66	=66	=66
24b-	24GG	[2d	8d
24dd	24BB-	.	.
24gg	24D	.	.
24bb-	24G	.	6D
24aa	24A	.	.
24gg	24B-	.	.
24ff#	16.A	.	.
24gg	.	.	24E
24aa	.	.	24F#
.	32d	.	.
16.gg	16.B-	.	24E
.	.	.	24F#
.	.	.	24G
32b-	32G	.	.
=67	=67	=67	=67
6a	16.D	2d_	24F#
.	.	.	24G
.	.	.	24A
.	32C	.	.
.	16.BB-	.	6G
24b-	.	.	.
24cc	.	.	.
.	32AA	.	.
24b-	8GG	.	.
24a	.	.	24A
24g	.	.	24B-
24f#	8DD	.	24A
24g	.	.	24B-
24a	.	.	24c
=68	=68	=68	=68
16.g	16.GG	8d]	24B-
.	.	.	24A
.	.	.	24G
32ee	32BB-	.	.
24ff	16.AA	8c#	6A
24gg	.	.	.
24aa	.	.	.
.	32GG	.	.
4cc#	24AA	8e	.
.	24BB-	.	24G
.	24AA	.	24F
.	24GG	8b-	24G
.	24AA	.	24F
.	24GG	.	24E
=69	=69	=69	=69
8dd	16.FF	24a	16.F
.	.	24dd	.
.	.	24a	.
.	32EE	.	32A
8.r	16.FF	24f	16.d
.	.	24a	.
.	.	24f	.
.	32DD	.	32A
.	8.BB-	8d	16F
16cc#	.	.	16E
16dd	.	8dd	16F
16ee	32AA	.	16G
.	32GG	.	.
=70	=70	=70	=70
24ff#	16.D	6a	24A
24gg	.	.	24B-
24aa	.	.	24c
.	32F#	.	.
4dd	16.G	.	6B-
.	.	24f#	.
.	.	24e	.
.	32A	.	.
.	16.B-	24d	.
.	.	24c	24c
.	.	24B-	24d
.	32d	.	.
24ee	16.g	16.A	24c#
24dd	.	.	24B
24cc#	.	.	24A
.	32a	32a	.
=71	=71	=71	=71
4.ff#	4.d	4.a	4.d
8r	8r	8r	8r
==	==	==	==
*-	*-	*-	*-
!!!RWG1: This file contains only pitch and duration data.
!!!RWG2: Transposing instruments are not transposed.
!!!RWG3: Spines may have incompatible meters.
!!!RWG4: Durations of rests and tied notes may be interpreted.
!!!RWG: Key is interpreted using the Humdrum key tool.
!!!AFT: stage1
!!!END: 1997/04/15/
!!format changes:
!!content changes:
!!public access: complete
!!!KEY: 2849756166
!!!EMD: Converted from MuseData to Humdrum Dec 19, 2000, by Andreas Kornstaedt using muse2kern.
